!!!COM: Joplin, Scott
!!!CDT: 1868/11/24/-1917/04/01/
!!!OTL: The Entertainer
!!!ODT: 1902///
**kern	**kern	**dynam
*staff2	*staff1	*staff1/2
*Ipiano	*Ipiano	*Ipiano
*>[I,A,A1,A,A2,B,B1,B,B2,C,D,D1,D,D2,E,E1,E,E2]	*>[I,A,A1,A,A2,B,B1,B,B2,C,D,D1,D,D2,E,E1,E,E2]	*>[I,A,A1,A,A2,B,B1,B,B2,C,D,D1,D,D2,E,E1,E,E2]
*>I	*>I	*>I
*clefF4	*clefG2	*clefG2
*k[]	*k[]	*k[]
*M2/4	*M2/4	*M2/4
*MM100	*MM100	*MM100
=1-	=1-	=1-
16ddLL	16dddLL	f
16ee	16eee	.
16cc	16ccc	.
[16aJJ	[16aaJJ	.
16aLL]	16aaLL]	.
16bJ	16bbJ	.
8gJ	8ggJ	.
=2	=2	=2
16dLL	16ddLL	.
16e	16ee	.
16c	16cc	.
[16AJJ	[16aJJ	.
16ALL]	16aLL]	.
16BJ	16bJ	.
8GJ	8gJ	.
=3	=3	=3
16DLL	16dLL	.
16E	16e	.
16C	16c	.
[16AAJJ	[16AJJ	.
16AALL]	16ALL]	.
16BB	16B	.
16AA	16A	.
16AA-JJ	16A-JJ	.
=4	=4	=4
8GG	8G	.
8r	8r	.
8GGG 8GGL	8g 8b 8dd 8ggL	.
8G 8BJ	(16dL	.
.	16d#JJ)	.
=5!|:	=5!|:	=5!|:
*>A	*>A	*>A
8CL	16eLK	p
.	8cc	.
8E 8G 8cJ	.	.
.	16eJk	.
8GG 8GL	8ccL	.
8G 8B- 8cJ	16eL	.
.	[16ccJJ	.
=6	=6	=6
8FF 8FL	4cc_	.
8A 8cJ	.	.
8EE 8EL	16ccLL]	<
.	16cc 16ee 16ccc	.
8G 8cJ	16dd 16ff 16ddd	.
.	16dd# 16ff# 16ddd#JJ	.
=7	=7	=7
8GGL	16ee 16gg 16eeeLL	f
.	16cc 16ee 16ccc	.
8E 8G 8cJ	16ddn 16ffn 16dddn	.
.	[16ee [16gg [16eeeJJ	.
8GGL	16ee] 16gg] 16eeeLL]	.
.	16b 16dd 16bbJ	.
8F 8G 8BJ	8dd 8ff 8dddJ	.
=8	=8	=8
8CL	[4cc [4ee [4ccc	.
8E 8G 8cJ	.	.
8E 8G 8cL	8cc] 8ee] 8cccL]	>
8G 8BJ	(16dL	.
.	16d#JJ)	.
=9	=9	=9
8CL	16eLK	p
.	8cc	.
8E 8G 8cJ	.	.
.	16eJk	.
8GG 8GL	8ccL	.
8G 8B- 8cJ	16eL	.
.	[16ccJJ	.
=10	=10	=10
8FF 8FL	4cc_	.
8A 8cJ	.	.
8EE 8EL	8ccL]	<
8G 8cJ	16a 16cc 16aaL	.
.	16g 16cc 16ggJJ	.
=11	=11	=11
8DD 8DL	16f# 16cc 16ff#LL	f
.	16a 16aa	.
8D 8F# 8A 8cJ	16cc 16ccc	.
.	[16ee [16eeeJJ	.
8DL	16ee] 16eeeLL]	.
.	16dd 16ddd	.
8F# 8A 8cJ	16cc 16ccc	.
.	16a 16aaJJ	.
=12	=12	=12
8G 8BL	[4dd [4ffn [4ddd	.
8GG 8GJ	.	.
8AA 8AL	8dd] 8ff] 8dddL]	>
8BB 8BJ	(16dL	.
.	16d#JJ)	.
=13	=13	=13
8CL	16eLK	p
.	8cc	.
8E 8G 8cJ	.	.
.	16eJk	.
8GG 8GL	8ccL	.
8G 8B- 8cJ	16eL	.
.	[16ccJJ	.
=14	=14	=14
8FF 8FL	4cc_	.
8A 8cJ	.	.
8EE 8EL	16ccLL]	<
.	16cc 16ee 16ccc	.
8G 8cJ	16dd 16ff 16ddd	.
.	16dd# 16ff# 16ddd#JJ	.
=15	=15	=15
8GGL	16ee 16gg 16eeeLL	f
.	16cc 16ee 16ccc	.
8E 8G 8cJ	16ddn 16ffn 16dddn	.
.	[16ee [16gg [16eeeJJ	.
8GGL	16ee] 16gg] 16eeeLL]	.
.	16b 16dd 16bbJ	.
8F 8G 8BJ	8dd 8ff 8dddJ	.
=16	=16	=16
8CL	[4cc [4ee [4ccc	.
8E 8G 8cJ	.	.
8G 8c 8e	8cc] 8ee] 8cccL]	.
8r	16cc 16cccL	.
.	16dd 16dddJJ	.
=17	=17	=17
8C 8cL	16ee 16eeeLL	.
.	16cc 16ccc	.
8G 8c 8eJ	16dd 16ddd	.
.	[16ee [16eeeJJ	.
8BB- 8B-L	16ee] 16eeeLL]	.
.	16cc 16ccc	.
8G 8c 8eJ	16dd 16ddd	.
.	16cc 16cccJJ	.
=18	=18	=18
8AA 8AL	16ee 16eeeLL	.
.	16cc 16ccc	.
8A 8c 8fJ	16dd 16ddd	.
.	[16ee [16eeeJJ	.
8AA- 8A-L	16ee] 16eeeLL]	.
.	16cc 16ccc	.
8A- 8c 8fJ	16dd 16ddd	.
.	16cc 16cccJJ	.
=19	=19	=19
8GG 8GL	16ee 16gg 16eeeLL	.
.	16cc 16ee 16ccc	.
8G 8c 8eJ	16dd 16ff 16ddd	.
.	[16ee [16gg [16eeeJJ	.
8GGL	16ee] 16gg] 16eeeLL]	.
.	16b 16dd 16bbJ	.
8G 8BJ	8dd 8ff 8dddJ	.
=20	=20	=20
*>A1	*>A1	*>A1
8C 8G 8cL	[4cc [4ee [4ccc	.
8GG 8GJ	.	.
8AA 8AL	8cc] 8ee] 8cccL]	>
8BB 8BJ	(16dL	.
.	16d#JJ)	.
=21:|!	=21:|!	=21:|!
*>A2	*>A2	*>A2
8C 8G 8cL	[4cc [4ee [4ccc	.
8GG 8GJ	.	.
8CC 8C	16cc] 16ee] 16cccLL]	.
.	16e 16cc 16ee	.
8r	16f 16dd 16ff	.
.	16f# 16dd# 16ff#JJ	.
=22!|:	=22!|:	=22!|:
*>B	*>B	*>B
8CC 8CL	8g 8ee 8ggL	f
8G 8c 8eJ	16a 16ee 16aaL	.
.	[16g [16ee [16ggJJ	.
8GGL	16g] 16ee] 16ggLL]	.
.	16e 16cc 16ee	.
8G 8c 8eJ	16f 16dd 16ff	.
.	16f# 16dd# 16ff#JJ	.
=23	=23	=23
8CL	8g 8ee 8ggL	.
8G 8c 8eJ	16a 16ee 16aaL	.
.	[16g [16ee [16ggJJ	.
8GGL	16g] 16ee] 16ggLL]	.
.	16ee	.
8G 8c 8eJ	16cc	.
.	16gJJ	.
=24	=24	=24
8FFL	16aLL	.
.	16b	.
8A 8c 8fJ	16cc	.
.	16ddJJ	.
8FL	16eeLL	.
.	16dd	.
8A- 8c 8fJ	16cc	.
.	16ddJJ	.
=25	=25	=25
8EL	16gLL	.
.	16ee	.
8G 8c 8eJ	16ff	.
.	16ggJJ	.
8GGL	16aaLL	.
.	16gg	.
8G 8c 8eJ	16ee	.
.	16ffJJ	.
=26	=26	=26
8CC 8CL	8g 8ee 8ggL	.
8G 8c 8eJ	16a 16ee 16aaL	.
.	[16g [16ee [16ggJJ	.
8GGL	16g] 16ee] 16ggLL]	.
.	16e 16cc 16ee	.
8G 8c 8eJ	16f 16dd 16ff	.
.	16f# 16dd# 16ff#JJ	.
=27	=27	=27
8CL	8g 8ee 8ggL	.
8G 8c 8eJ	16a 16ee 16aaL	.
.	[16g [16ee [16ggJJ	.
8EL	16g] 16ee] 16ggLL]	.
.	16gg	.
8E-J	16aa	.
.	16aa#JJ	.
=28	=28	=28
8DL	16dd 16gg 16bbLK	.
.	8dd 8gg 8bb	.
8G 8B 8dJ	.	.
.	[16cc [16ff# [16bbJk	.
8DL	16cc] 16ff#] 16bbLL]	.
.	16aa	.
8A 8c 8dJ	16cc 16ff#	.
.	16ddJJ	.
=29	=29	=29
8G 8B 8dL	[4b [4gg	.
8FF 8FJ	.	.
8EE 8EL	16b] 16ggLL]	.
.	16e 16cc 16ee	.
8DD 8DJ	16f 16dd 16ff	.
.	16f# 16dd# 16ff#JJ	.
=30	=30	=30
8CC 8CL	8g 8ee 8ggL	p
8G 8c 8eJ	16a 16ee 16aaL	.
.	[16g 16ee [16ggJJ	.
8GGL	16g] 16ee 16ggLL]	.
.	16e 16cc 16ee	.
8G 8c 8eJ	16f 16dd 16ff	.
.	16f# 16dd# 16ff#JJ	.
=31	=31	=31
8CL	8g 8ee 8ggL	.
8G 8c 8eJ	16a 16ee 16aaL	.
.	16g 16ee [16ggJJ	.
8GGL	16g 16ee 16ggLL]	.
.	16ee	.
8G 8c 8eJ	16cc	.
.	16gJJ	.
=32	=32	=32
8FFL	16aLL	.
.	16b	.
8A 8c 8fJ	16cc	.
.	16ddJJ	.
8FL	16eeLL	.
.	16dd	.
8A- 8c 8fJ	16cc	.
.	16ddJJ	.
=33	=33	=33
8EL	[4cc	.
8G 8c 8eJ	.	.
8CL	16ccLL]	>
.	16g	.
8B- 8c 8eJ	16f#	.
.	16gJJ	.
=34	=34	=34
8F 8A 8c 8fL	8ccL	p
8F 8A 8c 8fJ	16aL	.
.	[16ccJJ	.
8F 8A 8c 8d#L	16ccLL]	.
.	16a	.
8F 8A 8c 8d#J	16cc	.
.	16aJJ	.
=35	=35	=35
8G 8c 8eL	16gLL	<
.	16cc	.
8G 8c 8eJ	16ee	.
.	[16ggJJ	.
8G 8c 8eL	16ggLL]	.
.	16ee	.
8G 8c 8eJ	16cc	.
.	16gJJ	.
=36	=36	=36
8D 8cL	8f# 8aL	.
8D 8AJ	8f# 8ccJ	.
8G 8BL	16fn 16eeLK	.
.	8f 8dd	.
8G 8BJ	.	.
.	[16e [16ccJk	.
=37	=37	=37
*>B1	*>B1	*>B1
8C 8cL	4e_ 4cc_	.
8GG 8GJ	.	.
8EE 8EL	16e] 16ccLL]	.
.	16e 16cc 16ee	.
8DD 8DJ	16f 16dd 16ff	.
.	16f# (16dd# 16ff#JJ	.
=38:|!	=38:|!	=38:|!
*>B2	*>B2	*>B2
8C 8cL	&([4e&) [4cc)	.
8GG 8GJ	.	.
8CC 8C	8e] 8cc]	>
8r	(16dLL	.
.	16d#JJ)	.
=39	=39	=39
*>C	*>C	*>C
8CL	16eLK	p
.	8cc	.
8E 8G 8cJ	.	.
.	16eJk	.
8GG 8GL	8ccL	.
8G 8B- 8cJ	16eL	.
.	[16ccJJ	.
=40	=40	=40
8FF 8FL	4cc_	.
8A 8cJ	.	.
8EE 8EL	16ccLL]	<
.	16cc 16ee 16ccc	.
8G 8cJ	16dd 16ff 16ddd	.
.	16dd# 16ff# 16ddd#JJ	.
=41	=41	=41
8GGL	16ee 16gg 16eeeLL	f
.	16cc 16ee 16ccc	.
8E 8G 8cJ	16ddn 16ffn 16dddn	.
.	[16ee [16gg [16eeeJJ	.
8GGL	16ee] 16gg] 16eeeLL]	.
.	16b 16dd 16bbJ	.
8F 8G 8BJ	8dd 8ff 8dddJ	.
=42	=42	=42
8CL	[4cc [4ee [4ccc	.
8E 8G 8cJ	.	.
8E 8G 8cL	8cc] 8ee] 8ccc]	>
8G 8BJ	(16dLL	.
.	16d#JJ)	.
=43	=43	=43
8CL	16eLK	p
.	8cc	.
8E 8G 8cJ	.	.
.	16eJk	.
8GG 8GL	8ccL	.
8G 8B- 8cJ	16eL	.
.	[16ccJJ	.
=44	=44	=44
8FF 8FL	4cc_	.
8A 8cJ	.	.
8EE 8EL	8ccL]	<
8G 8cJ	16a 16cc 16aaL	.
.	16g 16cc 16ggJJ	.
=45	=45	=45
8DD 8DL	16f# 16cc 16ff#LL	f
.	16a 16aa	.
8D 8F# 8A 8cJ	16cc 16ccc	.
.	[16ee [16eeeJJ	.
8DL	16ee] 16eeeLL]	.
.	16dd 16ddd	.
8F# 8A 8cJ	16cc 16ccc	.
.	16a 16aaJJ	.
=46	=46	=46
8G 8BL	[4dd [4ffn [4ddd	.
8GG 8GJ	.	.
8AA 8AL	8dd] 8ff] 8ddd]	>
8BB 8BJ	(16dLL	.
.	16d#JJ)	.
=47	=47	=47
8CL	16eLK	p
.	8cc	.
8E 8G 8cJ	.	.
.	16eJk	.
8GG 8GL	8ccL	.
8G 8B- 8cJ	16eL	.
.	[16ccJJ	.
=48	=48	=48
8FF 8FL	4cc_	.
8A 8cJ	.	.
8EE 8EL	16ccLL]	<
.	16cc 16ee 16ccc	.
8G 8cJ	16dd 16ff 16ddd	.
.	16dd# 16ff# 16ddd#JJ	.
=49	=49	=49
8GGL	16ee 16gg 16eeeLL	f
.	16cc 16ee 16ccc	.
8E 8G 8cJ	16ddn 16ffn 16dddn	.
.	[16ee [16gg [16eeeJJ	.
8GGL	16ee] 16gg] 16eeeLL]	.
.	16b 16dd 16bbJ	.
8F 8G 8BJ	8dd 8ff 8dddJ	.
=50	=50	=50
8CL	[4cc [4ee [4ccc	.
8E 8G 8cJ	.	.
8G 8c 8e	8cc] 8ee] 8cccL]	.
8r	16cc 16cccL	.
.	16dd 16dddJJ	.
=51	=51	=51
8C 8cL	16ee 16eeeLL	.
.	16cc 16ccc	.
8G 8c 8eJ	16dd 16ddd	.
.	[16ee [16eeeJJ	.
8BB- 8B-L	16ee] 16eeeLL]	.
.	16cc 16ccc	.
8G 8c 8eJ	16dd 16ddd	.
.	16cc 16cccJJ	.
=52	=52	=52
8AA 8AL	16ee 16eeeLL	.
.	16cc 16ccc	.
8A 8c 8fJ	16dd 16ddd	.
.	[16ee [16eeeJJ	.
8AA- 8A-L	16ee] 16eeeLL]	.
.	16cc 16ccc	.
8A- 8c 8fJ	16dd 16ddd	.
.	16cc 16cccJJ	.
=53	=53	=53
8GG 8GL	16ee 16gg 16eeeLL	.
.	16cc 16ee 16ccc	.
8G 8c 8eJ	16dd 16ff 16ddd	.
.	[16ee [16gg [16eeeJJ	.
8GGL	16ee] 16gg] 16eeeLL]	.
.	16b 16dd 16bbJ	.
8G 8BJ	8dd 8ff 8dddJ	.
=54	=54	=54
8C 8G 8cL	[4cc [4ee [4ccc	.
8GG 8GJ	.	.
8CC 8C	8cc] 8ee] 8ccc]	.
8r	8r	.
=55	=55	=55
*>D	*>D	*>D
*k[b-]	*k[b-]	*k[b-]
8FFL	16ff 16aaLL	f
.	16gg#J	.
8A 8c 8fJ	[8ff [8aaJ	.
8CL	8ff] 8aaL]	.
8A 8c 8fJ	8ff 8aa 8cccJ	.
=56	=56	=56
*	*^	*
8BB-L	2ff 2bb- 2ddd	8r	.
8B- 8d 8fJ	.	16b-LL	.
.	.	16aJJ	.
8FL	.	16b-LL	.
.	.	16ccJ	.
8B- 8d 8fJ	.	8ddJ	.
*	*v	*v	*
=57	=57	=57
8DDL	16dd 16ffLL	.
.	16eeJ	.
8A 8d 8fJ	8dd [8ffJ	.
8AAL	8dd 8ffL]	.
8A 8d 8fJ	8dd 8ff 8aaJ	.
=58	=58	=58
*	*^	*
8GGL	[4dd [4gg [4bb-	8r	.
8B- 8dJ	.	16gLL	.
.	.	16f#JJ	.
8DL	8.dd] 8.gg] 8.bb-L]	16gLL	.
.	.	16aJ	.
8B- 8dJ	.	8b-J	.
.	16ggJk	.	.
*	*v	*v	*
=59	=59	=59
8BB- 8B-L	8ddL	.
8B- 8dJ	16ggL	.
.	[16ddJJ	.
8GG 8GL	16ddLL]	.
.	16ggJ	.
8GG# 8G#J	8ddJ	.
=60	=60	=60
8AA 8AL	4cc	.
8A 8c 8fJ	.	.
8DL	4ff	.
8A 8d 8fJ	.	.
=61	=61	=61
8EL	16eeLL	.
.	16gg#	.
8Bn 8d 8eJ	16bbn	.
.	[16eeeJJ	.
8G#L	16eeeLL]	.
.	16ddd	.
8B 8d 8eJ	16bb	.
.	16cccJJ	.
=62	=62	=62
*^	*	*
4A 4c 4e	4r	4aa	.
4c 4e	8GnL	4bb-	.
.	8CJ	.	.
*v	*v	*	*
=63	=63	=63
8FFL	16ff 16aaLL	.
.	16gg#J	.
8A 8c 8fJ	[8ff [8aaJ	.
8CL	8ff] 8aaL]	.
8A 8c 8fJ	8ff 8aa 8cccJ	.
=64	=64	=64
*	*^	*
8BB-L	2ff 2bb- 2ddd	8r	.
8B- 8d 8fJ	.	16b-LL	.
.	.	16aJJ	.
8FL	.	16b-LL	.
.	.	16ccJ	.
8B- 8d 8fJ	.	8ddJ	.
*	*v	*v	*
=65	=65	=65
8DDL	16dd 16ffLL	.
.	16eeJ	.
8A 8d 8fJ	[8dd [8ffJ	.
8AAL	8dd] 8ffL]	.
8A 8d 8fJ	8dd 8ff 8aaJ	.
=66	=66	=66
*	*^	*
8GGL	[4dd [4gg [4bb-	8r	.
8B- 8dJ	.	16gLL	.
.	.	16f#JJ	.
8DL	8.dd] 8.gg] 8.bb-L]	16gLL	.
.	.	16aJ	.
8B- 8dJ	.	8b-J	.
.	16ggJk	.	.
*	*v	*v	*
=67	=67	=67
8BB- 8B-L	8ddL	.
8B- 8dJ	16ggL	.
.	[16ddJJ	.
8GG 8GL	16ddLL]	.
.	16ggJ	.
8GG# 8G#J	8ddJ	.
=68	=68	=68
16AA 16ALL	4cc	<
16FF 16F	.	.
16EE 16E	.	.
16DD 16DJJ	.	.
4DD- 4D-	8.g# 8.bn 8.ffL	>
.	16ffJk	.
=69	=69	=69
*	*^	*
8CC 8CL	4r	16a 16aaLK	f
.	.	8cc 8ccc	.
8A 8c 8fJ	.	.	.
.	.	[16b- [16ggJk	.
8C 8cL	16ggLL]	8b-L]	.
.	16cc	.	.
8CC 8CJ	16dd	8b-J	.
.	16eeJJ	.	.
*	*v	*v	*
=70	=70	=70
*>D1	*>D1	*>D1
8FF 8F	8a 8ffL	.
8r	(16bnL	.
.	16ccJJ	.
4r	16ddLL	.
.	16ee	.
.	16ff	.
.	16ggJJ)	.
=71:|!	=71:|!	=71:|!
*>D2	*>D2	*>D2
8FF 8F	8a 8ff	.
8r	8r	.
8FFF 8FF	8ff 8aa 8ccc 8fff	.
8r	8r	.
=72	=72	=72
*k[]	*k[]	*k[]
*>E	*>E	*>E
8F 8A 8c 8fL	8ccL	p
8F 8A 8c 8fJ	16aL	.
.	[16ccJJ	.
8F# 8A 8c 8d#L	16ccLL]	.
.	16a	.
8F# 8A 8c 8d#J	16cc	.
.	16aJJ	.
=73	=73	=73
8G 8c 8eL	16gLL	.
.	16cc	.
8G 8c 8eJ	16ee	.
.	[16ggJJ	.
8G 8c 8eL	16ggLL]	.
.	16ee	.
8G 8c 8eJ	16cc	.
.	16gJJ	.
=74	=74	=74
8D 8cL	8f# 8aL	.
8D 8AJ	8f# 8ccJ	.
8G 8BL	16fn 16eeLK	.
.	8f 8dd	.
8G 8BJ	.	.
.	[16e [16ccJk	.
=75	=75	=75
4C 4c	4e] 4cc]	.
8CC 8C	8cc 8ee 8gg 8ccc	.
8r	8r	.
=76!|:	=76!|:	=76!|:
8FFL	8d 8fL	p
8F 8AJ	16c# 16eL	.
.	[16d [16fJJ	.
8AAL	16d] 16fLL]	.
.	16c# 16eJ	.
8F 8AJ	8d 8fJ	.
=77	=77	=77
8FFL	16r	.
.	16aLL	.
8F 8AJ	16f 16dd	.
.	16aJJ	.
8AAL	16ccLL	.
.	16dd	.
8F 8AJ	16cc	.
.	16aJJ	.
=78	=78	=78
8CL	8e 8gL	.
8E 8G 8cJ	16d# 16f#L	.
.	[16e [16gJJ	.
8GGL	16e] 16gLL]	.
.	16d# 16f#J	.
8E 8G 8cJ	8e 8gJ	.
=79	=79	=79
8CL	16r	.
.	16ccLL	.
8E 8G 8cJ	16g 16ee	.
.	16ccJJ	.
8GGL	16ddLL	.
.	16ee	.
8E 8G 8cJ	16dd	.
.	16ccJJ	.
=80	=80	=80
8GGL	8b 8ddL	.
8F 8G 8BJ	16a# 16cc#L	.
.	16b [16ddJJ	.
8DL	16b 16ddLL]	.
.	16a# 16cc#J	.
8F 8G 8BJ	8b 8ddJ	.
=81	=81	=81
8GGL	16r	.
.	16ffLL	.
8F 8G 8BJ	16b 16aa	.
.	16ffJJ	.
8DL	16ggLL	.
.	16aa	.
8F 8G 8BJ	16gg	.
.	16ffJJ	.
=82	=82	=82
8D# 8F# 8c	16cc 16cccLL	.
.	16cc 16cccJJ	.
4D# 4F# 4c	4cc 4ccc	.
8D# 8F# 8c	8cc 8aa	.
=83	=83	=83
8E 8G 8c	8cc 8gg	.
8r	16e 16gLL	.
.	16e 16gJJ	.
4r	8e 8gL	.
.	8e 8gJ	.
=84	=84	=84
8FFL	8d 8fL	.
8F 8AJ	16c# 16eL	.
.	[16d [16fJJ	.
8AAL	16d] 16fLL]	.
.	16c# 16eJ	.
8F 8AJ	8d 8fJ	.
=85	=85	=85
8FFL	16r	.
.	16aLL	.
8F 8AJ	16f 16dd	.
.	16aJJ	.
8AAL	16ccLL	.
.	16dd	.
8F 8AJ	16cc	.
.	16aJJ	.
=86	=86	=86
8CL	8e 8gL	.
8E 8G 8cJ	16d# 16f#L	.
.	[16e 16gJJ	.
8GGL	16e] 16gLL	.
.	16d# 16f#J	.
8E 8G 8cJ	8e 8gJ	.
=87	=87	=87
8CL	16r	.
.	16ccLL	.
8E 8G 8cJ	16g 16ee	.
.	16ccJJ	.
8GGL	16ddLL	.
.	16ee	.
8E 8G 8cJ	16dd	.
.	16ccJJ	.
=88	=88	=88
8FF 8FL	16aLL	.
.	16g#	.
8DD 8DJ	16a	.
.	[16a [16ggnJJ	.
8EE 8EL	16a] 16ggLK]	.
.	8a 8ff	.
8FF 8FJ	.	.
.	16a 16ccJk	.
=89	=89	=89
8GG 8GL	16g 16eeLL	.
.	16dd#	.
8G 8c 8eJ	16ee	.
.	[16aaJJ	.
8F# 8c 8d#L	16aaLL]	.
.	16ccc	.
8G 8c 8eJ	16gg	.
.	16eeJJ	.
=90	=90	=90
8AA 8AL	8f# 8ccL	.
8DD 8DJ	8f# 8ccJ	.
8GG 8GL	16fn 16b 16eeLK	.
.	8f 8b 8dd	.
8BB 8BJ	.	.
.	[16e [16g [16ccJk	.
=91	=91	=91
*>E1	*>E1	*>E1
8C 8c	8e] 8g] 8ccL]	.
8r	16e 16gL	.
.	16e 16gJJ	.
4r	8e 8gL	.
.	8e 8gJ	.
=92:|!	=92:|!	=92:|!
*>E2	*>E2	*>E2
8C 8cL	4e 4g 4cc	.
8GG 8GJ	.	.
8CC 8C	8cc 8ee 8gg 8ccc	.
8r	8r	.
==	==	==
*-	*-	*-
!!!ENC: Craig Stuart Sapp
!!!END: 2004/11/28/
